!!!!SEGMENT: sonata28-4.krn
!!!COM: Beethoven, Ludwig van
!!!CDT: 1770///-1827///
!!!OTL: Piano Sonata no. 28 in A major
!!!OPS: 101
!!!OMV: 4
!!!OMD: Allegro ma non troppo
**kern	**kern	**dynam
*staff2	*staff1	*staff1/2
*Ipiano	*Ipiano	*Ipiano
*>[A,B,B1,B,B2,C]	*>[A,B,B1,B,B2,C]	*>[A,B,B1,B,B2,C]
*>[A,B,B2,C]	*>[A,B,B2,C]	*>[A,B,B2,C]
*>A	*>A	*>A
*clefG2	*clefG2	*
*k[f#c#g#]	*k[f#c#g#]	*
*A:	*A:	*
*M2/4	*M2/4	*
*MM132	*MM132	*
=1-	=1-	=1-
!	!LO:TX:c:i:t=risoluto	!
4r	[2eeTT	.
8r	.	.
!	!	!LO:DY:b=2:rj
8e' 8g#' 8b' 8dd'	.	mf
*clefF4	*	*
=2	=2	=2
4E' 4G#' 4B' 4d'	2ee_TTT	.
4r	.	.
=3	=3	=3
4r	2ee_TTT	.
8r	.	.
8G#' 8B' 8d'	.	.
=4	=4	=4
4EE 4GG# 4BB 4D	4.ee]	.
8r	.	.
8EE' 8E'	8ee' 8gg#' 8bb' 8eee'	f
=5!|:	=5!|:	=5!|:
*>B	*>B	*>B
8AA'/ 8A'/	[4cc# [4ee [4aa [4ccc#	sf
*clefG2	*	*
8B' 8b'	.	.
[4A [4a	16cc#] 16ee] 16aa] 16ccc#LL]	.
.	16ddd	.
.	16eee	.
.	16fff#JJ	.
=6	=6	=6
16a] 16ALL])	4b 4bb	.
16B	.	.
16c#	.	.
16dJJ	.	.
4G#	8r	.
.	8ee' 8eee'	.
*clefF4	*	*
!!LO:LB:g=original
=7	=7	=7
8r	[4a [4aa	.
8G#' 8g#'	.	.
[4F# [4f#	16a] 16aaLL]	.
.	16bb	.
.	16ccc#	.
.	16dddJJ	.
=8	=8	=8
16F#] 16f#LL]	4g# 4gg#	.
16G#	.	.
16A	.	.
16BJJ	.	.
8E	8r	.
*clefG2	*	*
[8e [8ee	8ccc#	p
=9	=9	=9
8e] 8ee]	16ff#LL	.
.	16gg#	.
4e 4dd	16aa	.
.	16bbJJ	.
.	16aaLL	.
.	16gg#	.
[8e [8b	16ff#	.
.	16gg#JJ	.
=10	=10	=10
8e] 8b]	16aaLL	.
.	16bb	.
4e 4a	16ccc#	.
.	16dddJJ	.
.	16ccc#LL	.
.	16bb	.
8e 8g#	16aa	.
.	16bbJJ	.
=11	=11	=11
*	*8va	*
8aL	(16ccc#LL	.
.	16ddd	.
8g#	16eee	.
.	16fff#JJ	.
8f#	16ggg#LL	.
.	16aaa	.
8B 8bJ	16ccc# aa	.
.	16ddd#JJ)	.
=12	=12	=12
4B; 4b;	4aa; 4fff#;	.
8e; 8b;	8gg#; 8eee;	.
*	*X8va	*
*clefF4	*	*
!	!	!LO:DY:rj
8E' 8e'	8r	f
!!LO:LB:g=original
=13	=13	=13
[4C# [4c#	8r	.
.	8b' 8bb'	.
16C#] 16c#LL]	[4a [4aa	.
16d	.	.
16e	.	.
16f#JJ	.	.
=14	=14	=14
4BB 4B	16a] 16aaLL]	.
.	16bb	.
.	16ccc#	.
.	16dddJJ	.
8r	8g# 8gg#	.
8E' 8e'	8r	.
=15	=15	=15
[4AA [4A	8r	.
.	8g#' 8gg#'	.
16AA] 16ALL]	[4f# [4ff#	.
16B	.	.
16c#	.	.
16dJJ	.	.
=16	=16	=16
4GG#\ 4G#\	16f#] 16ff#LL]	.
.	16gg#	.
.	16aa	.
.	16bbJJ	.
8r	8e 8ee	.
8E	8g# [8ee	p
=17	=17	=17
*	*^	*
16F#LL	8ee]	8a	.
16G#	.	.	.
16A	4dd	[8d (>8f#L	.
16BJJ	.	.	.
16ALL	.	8d] 8bJ)	.
16G#	.	.	.
16F#	8b	8d 8e	.
16G#JJ	.	.	.
=18	=18	=18	=18
16ALL	8a	16c#LL	.
16B	.	16d	.
16c#	4a	16e	.
16dJJ	.	16f#JJ	.
16c#LL	.	16eLL	.
16B	.	16d	.
16A	[8a	16c#	.
16BJJ	.	16dJJ	.
*clefG2	*	*	*
!!LO:LB:g=original
=19	=19	=19	=19
16c#LL	8a]	8e	.
16d	.	.	.
16e	4ryy	4cc#	.
16f#JJ	.	.	.
16g#LL	.	.	.
16a	.	.	.
16f#	8ryy	[8cc# [8aa	.
16d#JJ	.	.	.
*clefF4	*	*	*
*	*v	*v	*
=20	=20	=20
*^	*	*
16eLL	8r	8cc#] (8aaL]	.
16f#	.	.	.
16dn	8E	8b 8gg#	.
16BJJ	.	.	.
4ryy	16ALL	8cc# 8aaJ)	.
.	16c#	.	.
.	16A	8ee'	.
.	16c#JJ	.	.
=21	=21	=21	=21
*	*	*^	*
2B	(8EL	(4.dd	8r	.
.	8FnJ	.	(8a	.
.	4E	.	4g#)	.
.	.	8ee	.	.
=22	=22	=22	=22	=22
(4A	4.E)	8cc#L	4.a	.
.	.	8aa	.	.
8c#L)	.	8eeJ)	.	.
8eJ	8E	8r	8r	.
*	*	*v	*v	*
=23	=23	=23	=23
(4.d	(8EL	8r	.
.	8FnJ	4b 4gg#	.
.	4E)	.	.
8e)	.	8b 8gg#	.
*v	*v	*	*
=24	=24	=24
8E (8c#L	8a (8aaL	.
*clefG2	*	*
8a)	8cc# 8ee)	.
8e'J	8a' 8cc#'J	.
*clefF4	*	*
8E' 8B'	8g#' 8ee'	.
!!LO:LB:g=original
=25	=25	=25
*^	*^	*
[4B	8EL	(4.dd	(8g#L	.
.	8FnJ	.	8aJ)	.
4B_	[4E	.	[4g#	.
.	.	8ee	.	.
=26	=26	=26	=26	=26
4B]	8EL]	4.dd	8g#L]	.
.	8FnJ	.	8aJ	.
4ryy	[4E [4B	.	[4g#	.
.	.	8ee	.	.
*v	*v	*	*	*
=27	=27	=27	=27
8E] 8BL]	8ddL	8g#L]	.
8E [8B	8ee	8g#	.
8Fn 8B]	8dd	8a	.
8E [8BJ	8eeJ)	[8g#J	.
=28	=28	=28	=28
*^	*	*	*
4B]	8FnL	16ddLL	8g#]	.
.	.	16ee	.	.
.	16EL	16ff#	8r	.
.	16DJJ	16gg#JJ	.	.
8C#	4ryy	4ryy	16aaLL	.
.	.	.	16bb	.
8EE'<	.	.	16ccc#	sf
.	.	.	16dddJJ	.
*v	*v	*	*	*
*	*v	*v	*
=29	=29	=29
!LO:DY:rj	!	!
[4CC#z	8ee 8eeeL	f
.	8b' 8bb'J	.
16CC#LL]	[4az [4aaz	.
16DD	.	.
16EE	.	.
16FF#JJ	.	.
=30	=30	=30
4BBB	16a] 16aaLL]	.
.	16bb	.
.	16ccc#	.
.	16dddJJ	.
8r	4g# 4gg#	.
8EE'	.	.
!!LO:LB:g=original
=31	=31	=31
!LO:DY:rj	!	!
[4AAAz	8r	.
.	8g#' 8gg#'	.
16AAALL]	[4f#z [4ff#z	.
16BBB	.	.
16CC#	.	.
16DDJJ	.	.
=32	=32	=32
4GGG#	16f#] 16ff#LL]	.
.	16gg#	.
.	16aa	.
.	16bbJJ	.
8r	4e\ 4ee\	.
8EE	.	.
*	*clefF4	*
=33	=33	=33
16FF#LL	8r	.
16GG#	.	.
16AA	8E	.
16BBJJ	.	.
16AALL	16F#LL	.
16GG#	16G#	.
16FF#	16A	.
16GG#JJ	16BJJ	.
=34	=34	=34
16AALL	16ALL	.
16BB	16G#	.
16C#	16A	.
16DJJ	16BJJ	.
16C#LL	16ALL	.
16BB	16G#	.
16AA	16F#	.
16BBJJ	16G#JJ	.
=35	=35	=35
16C#LL	16ALL	.
16D	16B	.
16E	16c#	.
16F#JJ	16dJJ	>
*	*clefG2	*
16G#LL	16eLL	.
16A	16f#	.
16F#	16g#	.
16D#JJ	16aJJ	.
=36	=36	=36
16ELL	16g#LL	.
16F#	16a	.
16Dn	16f#	.
16BBJJ	16dJJ	.
16C#LL	16eLL	.
16D	16f#	.
16E	16B	.
16EEJJ	16eJJ	]
!!LO:LB:g=original
=37	=37	=37
*^	*^	*
!	!	!	!	!LO:DY:rj
16C#LL	4AA	8A	4ryy	p
16D	.	.	.	.
16E	.	8r	.	.
16F#JJ	.	.	.	.
8E/	4ryy	[4a	16c#LL	.
.	.	.	16d	.
8r	.	.	16e	.
.	.	.	16f#JJ	.
=38	=38	=38	=38	=38
16C#LL	4AA	8a]	8e	.
16D	.	.	.	.
16E	.	8r	8r	.
16F#JJ	.	.	.	.
8E/	4ryy	[4a	16c#LL	.
.	.	.	16d	.
8r	.	.	16e	.
.	.	.	16f#JJ	.
=39	=39	=39	=39	=39
16DLL	4BB	8a]	8e	.
16E	.	.	.	.
16F#	.	8r	8r	.
16EJJ	.	.	.	.
8E/	4ryy	(4g#	16dLL	.
.	.	.	16e	.
8r	.	.	16f#	.
.	.	.	16eJJ	.
=40	=40	=40	=40	=40
16DLL	4BB	4ee	4e	.
16E	.	.	.	.
16F#	.	.	.	.
16EJJ	.	.	.	.
4E	4ryy	4g#	16dLL	.
.	.	.	16e	.
.	.	.	16f#	.
.	.	.	16eJJ	.
=41	=41	=41	=41	=41
16C#LL	4AA	8a)	8e	.
16D	.	.	.	.
16E	.	8r	8r	.
16F#JJ	.	.	.	.
8E/	4ryy	[4a	16c#LL	.
.	.	.	16d	.
8r	.	.	16e	.
.	.	.	16f#JJ	.
!!LO:LB:g=original
=42	=42	=42	=42	=42
16C#LL	4AA	8a]	8e	.
16D	.	.	.	.
16E	.	8r	8r	.
16F#JJ	.	.	.	.
8E	4ryy	[4a	16c#LL	.
.	.	.	16d	.
8r	.	.	16e	.
.	.	.	16f#JJ	.
=43	=43	=43	=43	=43
16DLL	4BB	4a]	4e	p
16E	.	.	.	.
16F#	.	.	.	.
16EJJ	.	.	.	.
*	*	*v	*v	*
*	*	*^	*
8E	4ryy	4g#	16dLL	.
.	.	.	16e	.
8r	.	.	16f#	.
.	.	.	16eJJ	.
=44	=44	=44	=44	=44
16ELL	4C#	4ee	4e	.
16A	.	.	.	.
16E	.	.	.	.
16AJJ	.	.	.	.
4r	4ryy	4a	16eLL	.
.	.	.	16f#	.
.	.	.	16g#	.
.	.	.	16f#JJ	.
=45	=45	=45	=45	=45
16F#LL	4D#	4cc#	4f#	.
16A	.	.	.	.
16F#	.	.	.	.
16BJJ	.	.	.	.
4r	4r	4b	16f#LL	.
.	.	.	16g#	.
.	.	.	16a	.
.	.	.	16g#JJ	.
=46	=46	=46	=46	=46
16G#LL	4E	4gg#/	4ryy	.
16A	.	.	.	.
16G#	.	.	.	.
16BJJ	.	.	.	.
4r	4r	4cc#	16g#LL	.
.	.	.	16a	.
.	.	.	16b	.
.	.	.	16aJJ	.
!!LO:LB:g=original
=47	=47	=47	=47	=47
16ALL	4F#	4ee	4a	.
16B	.	.	.	.
16A	.	.	.	.
16BJJ	.	.	.	.
4r	4r	4dd#	16aLL	.
.	.	.	16b	.
.	.	.	16cc#	.
.	.	.	16bJJ	.
*v	*v	*	*	*
*	*v	*v	*
=48	=48	=48
16G#LL	4bb	.
16A	.	.
16B	.	.
16AJJ	.	.
16G#LL	4b 4ee 4gg# 4bb	.
16B	.	.
16e	.	.
16g#JJ	.	.
*clefG2	*	*
=49	=49	=49
*^	*^	*
2b	16aLL	[4bb	4.dd# 4.ff#	f
.	16g#	.	.	.
.	16f#	.	.	.
.	16g#JJ	.	.	.
.	4a	16bbLL]	.	.
.	.	16ccc#	.	.
.	.	16ddd#	8r	.
.	.	16ccc#JJ	.	.
=50	=50	=50	=50	=50
2b	16aLL	[4bb	4.dd# 4.ff#	.
.	16g#	.	.	.
.	16f#	.	.	.
.	16g#JJ	.	.	.
.	4a	16bbLL]	.	.
.	.	16ccc#	.	.
.	.	16ddd#	8r	.
.	.	16ccc#JJ	.	.
*	*	*v	*v	*
=51	=51	=51	=51
8b'L	8a'L	8dd# 8bbL	.
8b'	8g#'	8ee' 8ccc#'	.
8b'	8a'	8ff#' 8aa' 8ddd#'	.
8b'J	8e' 8g#'J	8gg#' 8bb' 8eee'J	.
*v	*v	*	*
=52	=52	=52
8d#' 8f#' 8b'L	8ddd#' 8fff#'L	.
8c#' 8e' 8b'J	8eee' 8ggg#'J	.
4B' 4d#' 4b'	4fff#' 4aaa'	sf
!!LO:LB:g=original
=53	=53	=53
2r	4r	.
!	!	!LO:DY:t=%s dolce
.	(>8.aL	p
.	16g#Jk	.
=54	=54	=54
2r	8.f#L	.
.	16g#Jk	.
.	4a)	.
=55	=55	=55
4r	(4g#	.
(8.eL	4cc#	.
16d#Jk	.	.
=56	=56	=56
*	*^	*
8.c#L	4ryy	4ee	.
16d#Jk	.	.	.
4e)	4cc#)	4g#	.
*clefF4	*	*	*
*	*v	*v	*
=57	=57	=57
4r	(2d# 2f# 2b	.
(8.F#L	.	.
16E#Jk	.	.
=58	=58	=58
8.F#L	2c#) 2e 2a#	.
16EnJk	.	.
4C#)	.	.
=59	=59	=59
4BB	4d# 4b	.
*clefG2	*	*
*ped	*	*
(8.e 8.g#L	8.ee (8.gg#L	pp
16B 16f#Jk	16b 16ff#Jk	.
=60	=60	=60
8.G# 8.eL	8.g# 8.eeL	.
16B 16f#Jk	16b 16ff#Jk	.
4e 4g#)	4ee 4gg#)	.
!!LO:LB:g=original
=61	=61	=61
*	*^	*
!	!	!	!LO:DY:rj
*Xped	*	*	*
8b'L	8.aaL	4dd# 4ff#	f
8B'J	.	.	.
.	16bbJk	.	.
*clefF4	*	*	*
8e'L	4ryy	8ee' 8gg#'L	.
8E'J	.	8gg#' 8eee'J	.
*	*v	*v	*
=62	=62	=62
8B'L	8.a (8.ff#L	.
8BB'J	.	.
.	16b 16gg#Jk	.
8EE'	8g# 8ee)	.
8E 8G# 8B	8ee	p
=63	=63	=63
8EE	[4b	.
8E 8G# 8BL	.	.
8E 8G# 8B	16bLL]	.
.	16cc#	.
8E 8G# 8BJ	16dd#	.
.	16eeJJ	.
=64	=64	=64
*	*^	*
8EE	4cc#	[>4e	.
8E 8A 8c#L	.	.	.
8E 8A 8c#	4rff	(16eLL]	.
.	.	16f#	.
8E 8A 8c#J	.	16g#	.
.	.	16aJJ)	.
*	*v	*v	*
=65	=65	=65
8EE	[4ff#	.
8E 8F# 8A 8BL	.	.
8E 8F# 8A 8B	16ff#LL]	.
.	16gg#	.
8E 8F# 8A 8BJ	16aa	.
.	16bbJJ	.
=66	=66	=66
*	*^	*
8EE	4gg#	[4b	.
8E 8G# 8BL	.	.	.
8E 8G# 8B	4r	16bLL]	.
.	.	16cc#	.
8E 8G# 8BJ	.	16dd#	.
.	.	16eeJJ	.
*	*v	*v	*
!!LO:LB:g=original
=67	=67	=67
8EE	8bL	<
8E 8G# 8BL	[8bJ	.
8E 8G# 8B	16bLL]	.
.	16cc#	.
8E 8G# 8BJ	16dd#	.
.	16eeJJ	.
=68	=68	=68
*	*^	*
8EE	4cc#	8eL	.
8E 8A 8c#L	.	[>8eJ	.
8E 8A 8c#	4rdd	16eLL]	.
.	.	16f#	.
8E 8A 8c#J	.	16g#	.
.	.	16aJJ	.
=69	=69	=69	=69
8EE	8ff#L	4a	.
8E 8F# 8A 8BL	[8ff#J	.	.
8E 8F# 8A 8B	4ryy	16ff#LL]	.
.	.	16gg#	.
8E 8F# 8A 8BJ	.	16aa	.
.	.	16bbJJ	.
*	*v	*v	*
=70	=70	=70
16EELL	8b 8gg# 8bb	p
16FF#	.	<
16GG#	4e 4g# 4b	.
16AAJJ	.	.
16GG#LL	.	.
16AA	.	.
16BB	[8e [8g# [8b	.
16C#JJ	.	.
=71	=71	=71
16BBLL<	8.e] 8.g#] 8.bL]	.
16C#	.	.
16D#	.	.
16EJJ	16e 16g# 16bJk	.
16D#LL	8.e 8.g# 8.bL	.
16E	.	.
16F#	.	.
16G#JJ	16e 16g# 16bJk	.
=72	=72	=72
8BB 8F# 8A	16d# 16f# 16bLL<	f
.	16cc#	.
4BBB 4BB	16dd#	.
.	16eeJJ	.
.	16dd#LL	.
.	16ee	.
[8BBB [8BB	16ff#	.
.	16gg#JJ	.
!!LO:LB:g=original
=73	=73	=73
8.BBB] 8.BBL]	16ff#LL	.
.	16gg#	.
.	16aa	.
16BB 16F# 16AJk	16bbJJ	.
8.BB 8.F# 8.AL	16aaLL	.
.	16bb	.
.	16ccc#	.
16BB 16F# 16AJk	16ddd#JJ	.
=74	=74	=74
16ELL	8eee	fp
16F#	.	.
16G#	4ee 4gg# 4bb	<
16AJJ	.	.
16G#LL	.	.
16A	.	.
16B	[8ee [8gg# [8bb	.
16c#JJ	.	.
*clefG2	*	*
=75	=75	=75
16BLL	8.ee] 8.gg#] 8.bbL]	.
16c#	.	.
16d#	.	.
16eJJ	16ee 16gg# 16bbJk	.
16d#LL	8.ee 8.gg# 8.bbL	.
16e	.	.
16f#	.	.
16g#JJ	16ee 16gg# 16bbJk	.
=76	=76	=76
8B 8f# 8a	16dd# 16ff# 16bbLL	ff
*	*8va	*
.	16ccc#	.
*clefF4	*	*
4BB 4B	16ddd#	.
.	16eeeJJ	.
.	16ddd#LL	.
.	16eee	.
[8BB [8B	16fff#	.
.	16ggg#JJ	.
=77	=77	=77
8.BB] 8.B]	16fff#LL	.
.	16ggg#	.
.	16aaa	.
*clefG2	*	*
16B 16f# 16a	16bbbJJ	.
8.B 8.f# 8.aL	16aaaLL	.
.	16bbb	.
.	16cccc#	.
16B 16f# 16aJk	16dddd#JJ	.
!!LO:LB:g=original
=78	=78	=78
4c# 4e 4g#	4eee 4ggg# 4eeee	.
8r	8r	.
8A' 8a'	8ff#' 8ccc#' 8fff#'	p
=79	=79	=79
4A' 4a'	4ff#' 4ccc#' 4fff#'	.
*clefF4	*	*
8r	8r	.
8F#' 8f#'	8aa' 8aaa'	.
=80	=80	=80
8F#' 8f#'L	8aa' 8aaa'L>	.
8B' 8f#'	8dd#' 8aa' 8ddd#'	.
8B' 8f#'	8dd#' 8aa' 8ddd#'	.
8E' 8e'J	8ee' 8gg#' 8eee'J	.
=81	=81	=81
4BB 4B	4ff#/ 4ddd#/ 4fff#/	.
*	*X8va	*
4r	4r	.
=82	=82	=82
4D#	4B' 4f#' 4a'	pp
8r	8r	.
8E'	8B' 8e' 8g#'	.
=83	=83	=83
4E'	4B' 4e' 4g#'	.
8r	8r	.
8AA'	8c#' 8e' 8f#'	.
=84	=84	=84
8AA'L	8c#' 8e' 8f#'L	.
8BB'	8d#' 8b'	.
8BB'	8d#' 8b'	.
8EE'J	8e'J	.
=85	=85	=85
*>B1	*>B1	*>B1
4EE	4e	.
4r	8r	.
!	!	!LO:DY:rj
.	8ee 8eee	f
=86:|!	=86:|!	=86:|!
*>B2	*>B2	*>B2
4EE	4e	.
4r	8r	.
.	8b'/	p
!!LO:LB:g=original
=87	=87	=87
*>C	*>C	*>C
2EE 2E	2B 2e (>2g#	.
=88	=88	=88
*^	*	*
8E'L	2C#	2e 2a	.
8A'	.	.	.
8A'	.	.	.
8E'J	.	.	.
=89	=89	=89	=89
2E	2GG#	2B 2e 2b	.
=90	=90	=90	=90
8E'L	4.AA	2c# 2e 2cc#	.
8A'	.	.	.
8A'	.	.	.
8AA'J	8r	.	.
=91	=91	=91	=91
2AA	2FF#	2d 2a 2dd	.
=92	=92	=92	=92
8AA'L	2CC#	2e 2a 2ee)	.
8E'	.	.	.
8E'	.	.	.
8AA'J	.	.	.
*v	*v	*	*
=93	=93	=93
!!LO:TX:a:B:t=Poco rit.
(8DD 8DL	(8f# 8a 8ff#L>	.
8EE) 8E	8cc# 8ee)	.
(8FF#' 8F#'	(8b' 8dd'	.
8DD#') 8D#'J	8a') 8cc#'J	.
=94	=94	=94
4EE; 4E;	4a/; 4cc#/;	.
8E:; 8A:; 8cn:;	8e:; 8a:; 8ccn:;	.
!!LO:TX:a:B:t=a Tempo
8EE' 8E'	8e' 8ee'	ff
=95	=95	=95
4CCn' 4Cn'	4cn' 4ccn'	.
4r	4r	.
!!LO:LB:g=original
=96||	=96||	=96||
*k[]	*k[]	*
4r	2r	.
8r	.	.
!	!	!LO:DY:rj:a=2
8EE'	.	pp
=97	=97	=97
[4CC	2r	.
16CCLL]	.	.
16DD	.	.
16EE	.	.
16FFJJ	.	.
=98	=98	=98
4BBB	2r	.
8r	.	.
8DD'	.	.
=99	=99	=99
[4BBB	2r	.
16BBBLL]	.	.
16CC	.	.
16DD	.	.
16EEJJ	.	.
=100	=100	=100
8AAA'L	2r	.
8AA'	.	.
8AA'	.	.
8GG'J	.	.
=101	=101	=101
8AA'L	2r	.
8GG'J	.	.
8.FFTL	.	.
32EELL	.	.
32FFJJJ	.	.
=102	=102	=102
8r	2r	.
8GG'L	.	.
8GG'	.	.
8FF'J	.	.
*	*clefF4	*
!!LO:LB:g=original
=103	=103	=103
8GG'L	4r	.
8FF'J	.	.
!	!	!LO:DY:rj
(8EEL	8r	pp
16DDL	8G'	.
16CCJJ)	.	.
=104	=104	=104
16CLL	[4E	.
16BB	.	.
16AA	.	.
16GGJJ	.	.
!	!	!LO:DY:t=sempre %s
[4C	16ELL]	pp
.	16F	.
.	16G	.
.	16AJJ	.
=105	=105	=105
16CLL]	4D	.
16BB	.	.
16AA	.	.
16GGJJ	.	.
[4BB-	8r	.
.	8F'	.
=106	=106	=106
16BB-LL]	[4D	.
16AA	.	.
16GG	.	.
16FFJJ	.	.
[4BB-	16DLL]	.
.	16E	.
.	16F	.
.	16GJJ	.
=107	=107	=107
16BB-LL]	8C'L	.
16AA	.	.
16GG	8B-'	.
16FFJJ	.	.
8EE'L	8B-'	.
8FF'J	8A'J	.
=108	=108	=108
8DD'L	8B-'L	.
8EE'	8A'J	.
8EE'	8.GTL	.
8DD'J	.	.
.	32FLL	.
.	32GJJJ	.
!!LO:LB:g=original
=109	=109	=109
8EE'L	8r	.
8DD'J	8A'L	.
(4CC#t	8A'	.
.	8G'J	.
16qBBBnLL	.	.
16qCCJJ)	.	.
=110	=110	=110
*^	*	*
8r	4ryy	8A'L	.
8DD	.	8G'J	.
*	*	*clefG2	*
8FL	8DL	8r	.
!	!	!	!LO:DY:rj:a
16GL	16EL	8a'	pp
16AJJ	16FJJ	.	.
=111	=111	=111	=111
16B-LL	16GLL	[4f	.
16A	16F	.	.
16G	16E	.	.
16FJJ	16DJJ	.	.
[4B-	[4G	16fLL]	.
.	.	16g	.
.	.	16a	.
.	.	16b-JJ	.
=112	=112	=112	=112
16B-LL]	16GLL]	4e	.
16A	16F	.	.
16G	16E	.	.
16FJJ	16DJJ	.	.
8G	8E	8r	.
8r	8r	8g'	.
=113	=113	=113	=113
16ALL	16FLL	[4e	.
16G	16E	.	.
16F	16D	.	.
16EJJ	16C#JJ	.	.
[4A	[4F	16eLL]	.
.	.	16f	.
.	.	16g	.
.	.	16aJJ	.
=114	=114	=114	=114
16ALL]	16FLL]	8dL	.
16G	16E	.	.
16F	16D	8dd'	.
16EJJ	16C#JJ	.	.
4ryy	8D' 8F'L	8dd'	.
.	8F' 8d'J	8ccn'J	.
!!LO:LB:g=original
=115	=115	=115	=115
8r	8r	8dd'L	.
8dL	8GL	8cc'J	.
8d	8G	8.bntL<	.
8dJ	8FJ	.	.
.	.	32aLL	.
.	.	32bJJJ	.
*v	*v	*	*
=116	=116	=116
8G' 8e'L	8r	.
8F 8dJ	8cc'L	.
8E 8c	8cc'	.
8r	8b'J	.
=117	=117	=117
*^	*	*
8rc	8rD	8cc'L	.
8dL	8F'L	8b'J	.
8d	8F'	8.aTL	.
8cJ	8E'J	.	.
.	.	32g#LL	.
.	.	32aJJJ	.
=118	=118	=118	=118
*	*	*^	*
4ryy	8D' 8d'L	4raa	8b'L	.
.	8F' 8c'J	.	8a'J	.
8cL	4E	8raa	8.g#t>L	.
8BJ	.	8ee	.	.
.	.	.	32f#LL	.
.	.	.	32g#JJJ	.
=119	=119	=119	=119	=119
16cLL	4AA	[4cc	16aLL	.
!	!	!	!	!LO:HP:a
16B	.	.	16g#	<
16A	.	.	16f#	.
16G#JJ	.	.	16eJJ	.
[4c	4r	16ccLL]	[4a	.
.	.	16dd	.	.
.	.	16ee	.	.
.	.	16ffnJJ	.	.
=120	=120	=120	=120	=120
16cLL]	[2E	4b)	16a]LL	.
16B	.	.	16g#	.
16A	.	.	16f#	.
16G#JJ	.	.	16eJJ	.
[4B	.	8r	[4g#	.
.	.	8dd	.	.
!!LO:LB:g=original
=121	=121	=121	=121	=121
16BLL]	4E]	[4b	16g#LL]	.
16B	.	.	16g#	.
16A	.	.	16f#	.
16G#JJ	.	.	16eJJ	.
8BL	8EL	16bLL]	8g#L	.
.	.	16cc	.	.
8G#J	8DJ	16dd	8eJ	.
.	.	16eeJJ	.	.
=122	=122	=122	=122	=122
4A	4C	8aL	4e	f
.	.	8aa'	.	.
[4e	8C#L	8aa'	[4a	.
.	8AJ	8gg'J	.	.
=123	=123	=123	=123	=123
8e]	2D	8aa'L	8a]	.
8d'L	.	8gg'J	8b'L	.
8d'	.	8.ffTL	8b'	.
8cn'J	.	.	8a'J	.
.	.	32eeLL	.	.
.	.	32ffJJJ	.	.
=124	=124	=124	=124	=124
8d'L	2G	8r	8b'L	.
8c'J	.	8gg'L	8a'J	.
4B	.	8gg'	4g	.
.	.	8ff'J	.	.
=125	=125	=125	=125	=125
8rc	4.C	8gg'L	8r	.
8c'L	.	8ff'J	8a'L	.
8c'	.	8eetL	8g'	.
8e'J	8B-	16ddL	8g'J	.
.	.	16ccJJ	.	.
=126	=126	=126	=126	=126
8cL	8A	8ggL	8aL	.
8A	8r	[8ff	8cc	.
8Bn	4r	8ff]	8dd	.
8cJ	.	[8eeJ	8gJ	.
*v	*v	*	*	*
!!LO:LB:g=original
=127	=127	=127	=127
8F	8eeL]	4a	.
4f	[8dd	.	.
.	8dd]	8a-L	.
8e	8ccJ	8gJ	.
=128	=128	=128	=128
*^	*	*	*
4d	8r	16ccLL	4f	.
.	.	16b	.	.
.	8GG'	16a	.	.
.	.	16bJJ	.	.
!	!LO:DY:rj	!	!	!
4c	[4EEz	16ccLL	[4g'	.
.	.	16b	.	.
.	.	16a	.	.
.	.	16gJJ	.	.
*v	*v	*	*	*
=129	=129	=129	=129
16EELL]	[4cc	16gLL]	.
16FF	.	16e	.
16GG	.	16d	.
16AAJJ	.	16cJJ	.
4DD	16ccLL]	[4f	.
.	16b	.	.
.	16a	.	.
.	16gJJ	.	.
=130	=130	=130	=130
8r	[4b-	16fLL]	.
.	.	16d	.
8GG'	.	16c	.
.	.	16B-JJ	.
!LO:DY:rj	!	!	!
[4DDz	16b-LL]	[4f	.
.	16a	.	.
.	16g	.	.
.	16fJJ	.	.
=131	=131	=131	=131
16DDLL]	[4b-	16fLL]	.
16EE	.	16e	.
16FF	.	16d	.
16GGJJ	.	16cJJ	.
8CC'L	16b-LL]	8eL	.
.	16a	.	.
8BB-'J	16g	8dJ	.
.	16fJJ	.	.
*	*v	*v	*
!!LO:LB:g=original
=132	=132	=132
8BB-'L	8c' 8e'L	.
8AA'J	8f' 8cc'	.
8.GGTL	8d' 8cc'	.
.	8e' 8b-'J	.
32FFLL	.	.
32GGJJJ	.	.
=133	=133	=133
*	*^	*
8.AAL	8b-'L	4c#t	.
.	8a'J	.	.
16GGJk	.	.	.
.	.	(16qBnLL<	.
.	.	16qcJJ)	.
8FFL	[4a	8dL	.
16EEL	.	16eL	.
16DDJJ	.	16fJJ	.
=134	=134	=134	=134
4.BB-	8aL]	4.d	sf
.	8g	.	.
.	8g	.	.
8AA	8fJ	8cn	.
=135	=135	=135	=135
4GG	8fL	4B-	.
.	8eJ	.	.
4FF	8eL	4A	.
.	16dL	.	.
.	16cJJ	.	.
=136	=136	=136	=136
*^	*	*	*
8rc	8EEL	2cc	8re	.
8cL	8EJ	.	8aL	.
8c	4E-	.	8a	.
8B-J	.	.	8gJ	.
=137	=137	=137	=137	=137
8B-L	4D	2dd	8gL	.
8AJ	.	.	8f#J	.
8AL	4C	.	8f#L	.
16GL	.	.	16eL	.
16F#JJ	.	.	16dJJ	.
=138	=138	=138	=138	=138
4B-	4BB-	8ddL	4g	.
.	.	8gg	.	.
4rA	8AAL	8gg	8ccL	.
.	8BB-J	8ffJ	8ddJ	.
!!LO:LB:g=original
=139	=139	=139	=139	=139
8rA	4C	8ffL	8aL	.
8B-	.	8eenJ	8gJ	.
8B-L	4BB-	8eeL	8gL	.
16AL	.	16ddL	16fL	.
16GJJ	.	16ccJJ	16eJJ	.
=140	=140	=140	=140	=140
8AL	8AAL	8ffL	8ccL	.
8c	8EE	16ccL	8g	.
.	.	16b-JJ	.	.
8c	8FF	8aL	8f	.
8B-J	8BB-J	16gL	8dJ	.
.	.	16fJJ	.	.
=141	=141	=141	=141	=141
4rF	8GGL	8b-L	16eLL	>
.	.	.	16d	.
.	8BB-	8g	16c#	.
.	.	.	16dJJ	.
8rF	8AA	8e	8c#	.
8D	8FFJ	[8aJ	8rc	.
*	*	*v	*v	*
=142	=142	=142	=142
[4BBn	2EE	16aLL]	.
.	.	16g#	.
.	.	16f#	.
.	.	16eJJ	.
16BBLL]	.	8g#	.
16C#	.	.	.
16D	.	8r	.
16EJJ	.	.	.
*	*	*clefF4	*
=143	=143	=143	=143
2C#	[4EE	16ALL	.
.	.	16Gn	.
.	.	16F#	.
.	.	16EJJ	.
.	16EELL]	8G	.
.	16FF#	.	.
.	16GG	8r	.
.	16AAJJ	.	.
*v	*v	*	*
*	*clefG2	*
!!LO:LB:g=original
=144	=144	=144
*^	*	*
[4AA	2DD	16gLL	.
.	.	16f#	.
.	.	16e	.
.	.	16dJJ	.
16AALL]	.	8f#	.
16BB	.	.	.
16Cn	.	8r	.
16DJJ	.	.	.
*	*	*clefF4	*
=145	=145	=145	=145
4.BB	[4DD	16GLL	.
.	.	16Fn	.
.	.	16E	.
.	.	16DJJ	.
.	16DDLL]	8FL>	.
.	16EE	.	.
*	*	*clefG2	*
8B>	16FF	8gJ	.
.	16GGJJ	.	.
=146	=146	=146	=146
16cLL	8CC	[4e	p
16B	.	.	.
16A	8rCC	.	.
16GJJ	.	.	.
[4c	16CLL	16eLL]	.
.	16BB	16f	.
.	16AA	16g	.
.	16GGJJ	16aJJ	.
=147	=147	=147	=147
16cLL]	8F	4d	.
16B	.	.	.
16A	8rBB	.	.
16GJJ	.	.	.
[4B	4rBB	8r	.
.	.	8f'	.
=148	=148	=148	=148
16BLL]	4rBB	[4d	.
16B	.	.	.
16A	.	.	.
16GJJ	.	.	.
4B	16GLL	16dLL]	.
.	16F	16e	.
.	16E	16f	.
.	16DJJ	16gJJ	.
=149	=149	=149	=149
!	!	!	!LO:DY:t=sempre %s
16cLL	8C	8eL	p
16B	.	.	.
16A	8rBB	8ee'	.
16GJJ	.	.	.
8c'<L	4rBB	8ee'	.
8B'<J	.	8dd'J	.
*v	*v	*	*
!!LO:LB:g=original
=150	=150	=150
*k[]	*k[]	*
*^	*	*
8c'L	8r	8ee'L	.
8B'J	8D'L	8dd'J	.
8.ATL	8D'	8.ccTL	.
.	8C'J	.	.
32GLL	.	32bLL	.
32AJJJ	.	32ccJJJ	.
=151	=151	=151	=151
8r	8D'L	8r	.
8B'L	8C'J	8dd'L	.
8B'	4BB	8dd'	.
8A'J	.	8cc'J	.
=152	=152	=152	=152
8B'L	8r	8dd'L	.
8A'J	8C'L	8cc'J	.
8GL	8C'	8.btL	.
16AL	8BB'J	.	.
16BJJ	.	32aLL	.
.	.	32gJJJ	.
=153	=153	=153	=153
8EL	8AA'L	8cc	.
8EJ	8GG'J	4cc	.
4D	8FF#L	.	.
.	16EEL	8cc	.
.	16DDJJ	.	.
=154	=154	=154	=154
*	*	*^	*
8DL	8GGL	8raa	8ccL	.
!	!	!	!	!LO:HP:a
8Gn	8FJ	8gg	8b	<
8G	8EL	8ggL	8cc	.
8cJ	16DL	16ffL	8gJ	.
.	16CJJ	16eeJJ	.	.
*v	*v	*	*	*
=155	=155	=155	=155
8FF 8F	8aa'L	8a	f
8r	8cc'J	8rc	.
8FFF	16aLL	4r	.
.	16b	.	.
8r	16cc	.	.
.	16ddJJ	.	.
!!LO:LB:g=original
=156	=156	=156	=156
8GGG	4b	8rc	.
8r	.	8d'	.
8GG	4rff	16BLL	.
.	.	16c	.
8r	.	16d	.
.	.	16eJJ	.
=157	=157	=157	=157
8AA	8rff	4c	.
8r	8ee'	.	.
8AAA	16ccLL	4rc	.
.	16dd	.	.
8r	16ee	.	.
.	16ffJJ	.	.
=158	=158	=158	=158
8BBB	4dd	8r	.
8r	.	8f'	.
8BB	4r	16dLL	.
.	.	16e	.
8r	.	16f	.
.	.	16gJJ	.
*	*v	*v	*
=159	=159	=159
8CC'L	8ee 8ccc	.
8D'J	8r	.
16CLL	8e 8cc	.
16D	.	.
16E	8r	.
16FJJ	.	.
=160	=160	=160
8G'L<	8d 8b	.
8FF'J	8r	.
16DDLL	8dd 8bb	.
16EE	.	.
16FF	8r	.
16GGJJ	.	.
=161	=161	=161
8FF'L	8dd 8ddd	.
8E'J	8r	.
16DLL	8f 8dd	.
16E	.	.
16F	8r	.
16GJJ	.	.
!!LO:LB:g=original
=162	=162	=162
*	*^	*
8A'L>	8e 8cc#	4ryy	.
8AA'J	8r	.	.
16EELL	[4ccc#	4ee	.
16FF#	.	.	.
16GG	.	.	.
16AAJJ	.	.	.
=163	=163	=163	=163
8FF#'L<	4ccc#]	2dd#	.
8A'J	.	.	.
16F#LL	[4cccn	.	.
16G#	.	.	.
16A	.	.	.
16BJJ	.	.	.
=164	=164	=164	=164
8GG#'L	4ccc]	2ddn	.
8B'J	.	.	.
16G#LL	[4bb	.	.
16A	.	.	.
16B	.	.	.
16cJJ	.	.	.
=165	=165	=165	=165
8AA'L	4bb]	2cc	.
8c'J	.	.	.
16ALL	[4aa	.	.
16B	.	.	.
16c	.	.	.
16dJJ	.	.	.
=166	=166	=166	=166
*^	*	*	*
4ryy	8BB'L	8aaL]	4dd	.
.	8d'J	8gg#	.	.
16BLL	8C	8aa	8ee	.
16cJJ	.	.	.	.
8E	8C	8aJ	16eLL	.
.	.	.	16f#JJ	.
=167	=167	=167	=167	=167
8F#	16BBLL	16aLL	8d#	.
.	16C#	16gn	.	.
8ryy	16D#	16f#	8ryy	.
.	16EJJ	16eJJ	.	.
!	!	!	!	!LO:DY:rj
4ryy	16D#LL	8a	16F</LL	sf
.	16E	.	16G\	.
.	16F#	8r	16A\	.
.	16GJJ	.	16B\JJ	.
*v	*v	*	*	*
*	*v	*v	*
!!LO:LB:g=original
=168	=168	=168
16F#LL	16ALL	.
16G	16B	.
16A	16c	.
16GJJ	16BJJ	.
16ALL	16cLL	.
16B	16d#	.
16c	16e	.
16d#JJ	16f#JJ	.
=169	=169	=169
*	*^	*
16E 16eLL	16ggLL	4g	.
16F#	16ff#	.	.
16G	16ee	.	.
16AJJ	16dd#JJ	.	.
8E	16eeLL	16g\LL	.
.	16ddn	16f#</	.
8rD	16cc	16e</	.
.	16bJJ	16d</JJ	.
*	*v	*v	*
=170	=170	=170
16eLL	16ccLL	.
16d	16b	.
16c	16a	.
16BJJ	16gJJ	.
16cLL	16aLL	.
16B	16g	.
16A	16f#	.
16GJJ	16eJJ	.
=171	=171	=171
*^	*^	*
4A	16DLL	4ryy	16ccLL<	f
.	16E	.	16b	.
.	16F#	.	16a	.
.	16GJJ	.	16gJJ	.
4ryy	16F#LL	4cc	16A</LL	sf
.	16G	.	16B\	.
.	16A	.	16c\	.
.	16BJJ	.	16d\JJ	.
*v	*v	*	*	*
*	*v	*v	*
=172	=172	=172
16ALL	16cLL	.
16B	16d	.
16c	16e	.
16dJJ	16f#JJ	.
16cLL	16eLL	.
16d	16f#	.
16e	16g	.
16f#JJ	16aJJ	.
!!LO:LB:g=original
=173	=173	=173
*	*^	*
16G 16gLL	16bbLL	4b	.
16A	16aa	.	.
16B	16gg	.	.
16cJJ	16ff#JJ	.	.
8G	16ggLL	16b\LL	sf
.	16ff#	16a</	.
8r	16ee	16g</	.
.	16ddJJ	16f#</JJ	.
=174	=174	=174	=174
*^	*	*	*
16gLL>	4ryy	16eeLL>	4ryy	.
16f#	.	16dd	.	.
16e	.	16cc	.	.
16dJJ	.	16bJJ	.	.
[4ez	16r	[4gg	16r	.
.	16BLL	.	16ddLL	.
.	16A	.	16cc	.
.	16GJJ	.	16bJJ	.
=175	=175	=175	=175	=175
16eLL]	[4A	16ggLL]	[4cc	.
16f#	.	16aa	.	.
16g	.	16bb	.	.
16aJJ	.	16cccJJ	.	.
[4dz	16ALL]	[4ff#	16ccLL]	.
.	16A	.	16cc	.
.	16G	.	16b	.
.	16F#JJ	.	16aJJ	.
=176	=176	=176	=176	=176
16dLL]	[4G	16ff#LL]	[4b	.
16e	.	16gg	.	.
16f#	.	16aa	.	.
16gJJ	.	16bbJJ	.	.
[4cz	16GLL]	[4ee	16bLL]	.
.	16G	.	16b	.
.	16F#	.	16a	.
.	16EJJ	.	16gJJ	.
=177	=177	=177	=177	=177
16cLL]	4F#	16eeLL]	4a	.
16d	.	16ff#	.	.
16e#	.	16gg	.	.
16f#JJ	.	16aaJJ	.	.
4ryy	16BBBLL	8aaL	8ff#L	.
.	16CC#	.	.	.
.	16DD#	[8ggJ	(8eeJ	.
.	16EEJJ	.	.	.
*v	*v	*	*	*
!!LO:LB:g=original
=178	=178	=178	=178
16FF#LL	8ggL]	8bL)	.
16GG	.	.	.
16AA	[8ff#	[8a	.
16BBJJ	.	.	.
16C#LL>	8ff#]	8a]	.
16D#	.	.	.
16E	[8eeJ	[8gJ	.
16F#JJ	.	.	.
=179	=179	=179	=179
*^	*	*	*
8BL	16GLL	8eeL]	8gL]	.
.	16A	.	.	.
8BJ	16B	8dd#J	8f#J	.
.	16BBJJ	.	.	.
8B 8dnL	4ryy	4ee	16eLL	.
.	.	.	16f#	.
(<8A [8cnJ	.	.	16g#	.
.	.	.	16aJJ	.
*v	*v	*	*	*
*	*v	*v	*
=180	=180	=180
8E) 8cL]	16bLL	.
.	16cc	.
[8D [8B	16dd	.
.	16eeJJ	.
8D] 8B]	16ff#LL	.
.	16gg#	.
[8C [8AJ	16aa	.
.	16bbJJ	.
=181	=181	=181
8C] 8AL]	16cccLL	.
.	16ddd	.
8BB 8G#	16eee	.
.	16eeJJ	.
8AA 8AJ	8aa	.
8E	8r	.
=182	=182	=182
*^	*	*
8rc	[4C	4r	.
8c'	.	.	.
[4A	16CLL]	8r	.
.	16D	.	.
.	16E	8a	.
.	16FJJ	.	.
!!LO:LB:g=original
=183	=183	=183	=183
*	*	*^	*
16ALL]	4BB	4rff	[4g#	.
16B	.	.	.	.
16c	.	.	.	.
16dJJ	.	.	.	.
4G#	8rB	8rff	16g#LL]	.
.	.	.	16a	.
.	8E	8dd	16b	.
.	.	.	16ccJJ	.
=184	=184	=184	=184	=184
8AL	[2E	8ccL	[4cc	.
8e'J	.	8ccc'J	.	.
[4c	.	[4aa	16ccLL]	.
.	.	.	16dd	.
.	.	.	16ee	.
.	.	.	16ffJJ	.
=185	=185	=185	=185	=185
16cLL]	4E]	16aaLL]	4b	.
16d	.	16bb	.	.
16e	.	16ccc	.	.
16fJJ	.	16dddJJ	.	.
8B/	4ryy	8gg#	8r	.
8EE'	.	8r	8dd'	.
=186	=186	=186	=186	=186
8rc	[2E	8raa	[4b	.
8d'	.	8bb'	.	.
[4B	.	[4gg#	16bLL]	.
.	.	.	16cc	.
.	.	.	16dd	.
.	.	.	16eeJJ	.
=187	=187	=187	=187	=187
16BLL]	8EL]	16gg#LL]	4cc	.
16c	.	16aa	.	.
16d	8EJ	16bb	.	.
16eJJ	.	16cccJJ	.	.
4ryy	16CLL	8ccc'L	8eeL	.
.	16D	.	.	.
.	16E	8bb'J	8ddJ	.
.	16FJJ	.	.	.
*v	*v	*	*	*
!!LO:LB:g=original
=188	=188	=188	=188
8E	8ccc'L	8eeL	.
8F' 8d'L	8bb'J	8ddJ	.
8F' 8d'	8.aaTL	4cc	.
8E' 8c'J	.	.	.
.	32gg#LL	.	.
.	32aaJJJ	.	.
=189	=189	=189	=189
8F' 8d'L	8raa	8rb	.
8E' 8c'J	8bb'L	8dd'L	.
4D 4B	8bb'	8dd'	.
.	8aa'J	8cc'J	.
=190	=190	=190	=190
8r	8bb'L	8ddL	.
8E' 8c'L	8aa'J	8ccJ	.
8E' 8c'	8.gg#tL	4b	.
8D' 8B'J	.	.	.
.	32ff#LL	.	.
.	32gg#JJJ	.	.
=191	=191	=191	=191
8D' 8B'L	8r	8r	.
8C' 8A'J	8aa'L	8ccL	f
8r	8aa'	8cc	.
8B' 8d'	8ggn'J	8bJ	.
*	*v	*v	*
=192	=192	=192
8B' 8d'L	8r	.
8A'z 8c'zJ	8b' 8gg'L	.
8r	8b' 8gg'	.
8A' 8c'	8a' 8ff'J	.
=193	=193	=193
8A' 8c'L	8r	.
8G#' 8B'	8dd' 8ff'L	sf
8G#' 8B'	8dd' 8ff'	.
8A' 8c'J	8cc' 8ee'J	sf
!!LO:LB:g=original
=194	=194	=194
*	*^	*
8CL	8eeL	8ccL	.
8BB' 8D'	8ddJ	8bJ	.
8BB' 8D'	8ccL	8eL	.
8C' 8E'J	16bzL	8eJ	.
.	16aJJ	.	.
=195	=195	=195	=195
8C' 8E'L	8aa'L	8aL	.
8C#' 8E'	8gg'J	8b-J	sf
8C#' 8E'	8ffL	8aL	.
8D' 8F'J	16eeL	16gL	sf
.	16ddJJ	16fJJ	.
*	*v	*v	*
=196	=196	=196
8D#' 8F#' 8A' 8c'L	8cc' 8ccc'L	.
8E' 8A' 8c'J	8cc' 8aa'	sf
*8ba	*	*
4EEE 4AAA 4EE	8b' 8gg#'	ff
.	8cc' 8aa'J	.
=197	=197	=197
*	*^	*
[2EEE [>2FFF# [2EE	4ryy	16gg#LL	.
.	.	16aa	.
.	.	16bb	.
.	.	16cccJJ	.
.	4dd#	16g#LL	.
.	.	16a	.
.	.	16b	.
.	.	16ccJJ	.
=198	=198	=198	=198
2EEE_ 2FFF#_> 2EE_	16g#LL	4d#	.
.	16a	.	.
.	16b	.	.
.	16ccJJ	.	.
.	4d#	16G#LL	.
.	.	16A	.
.	.	16B	.
.	.	16cJJ	.
*	*v	*v	*
=199	=199	=199
4EEE] 4FFF#] 4EE]	8D#L	.
.	8d#' 8a' 8cc'	.
4EEE 4GGG# 4EE	8d#' 8a' 8cc'	.
.	8e' 8g#' 8b'J	.
!!LO:LB:g=original
=200	=200	=200
4EEE 4AAA 4EE	8c' 8d#' 8f#' 8b'L	.
.	8c' 8d#' 8f#' 8a'	.
4EEE 4BBB 4EE	8c 8d# 8f# 8a	.
.	8B 8e 8g#J	.
*	*clefF4	*
=201	=201	=201
*ped	*	*
16EEELL	16r	.
16GGG#	16EELL	ff
16BBBJJ	16GG#	.
*X8ba	*	*
16r	16BBJJ	.
16EELL	16r	.
16GG#	16ELL	.
16BBJJ	16G#	.
16r	16BJJ	.
=202	=202	=202
16EELL	16r	.
16GG#	16ELL	.
16BBJJ	16G#	.
16r	16BJJ	.
*	*clefG2	*
16ELL	16r	.
16G#	16eLL	.
16BJJ	16g#	.
16r	16bJJ	.
=203	=203	=203
16ELL	16r	.
16G#	16eLL	.
16BJJ	16g#	.
16r	16bJJ	.
*clefG2	*	*
16eLL	16r	.
16g#	16eeLL	.
16bJJ	16gg#	.
16r	16bbJJ	.
=204	=204	=204
16eLL	16r	.
16g#	16eeLL	.
16bJJ	16gg#	.
16r	16bbJJ	.
*	*8va	*
8r	16eeeLL	.
.	16ggg#	.
*clefF4	*	*
8EEE 8EE	16bbb	.
*Xped	*	*
.	16eeeeJJ	.
*	*X8va	*
!!LO:LB:g=original
=205||	=205||	=205||
*k[f#c#g#]	*k[f#c#g#]	*
8AAA 8AAL	[4cc# [4ee [4aa [4ccc#	.
*clefG2	*	*
8B' 8b'J	.	.
[4Az [4az	16cc#] 16ee] 16aa] 16ccc#LL]	.
.	16ddd	.
.	16eee	.
.	16fff#JJ	.
=206	=206	=206
16A] 16aLL]	4b 4bb	.
16B	.	.
16c#	.	.
16dJJ	.	.
4G#	8r	.
.	8ee' 8eee'	.
*clefF4	*	*
=207	=207	=207
8r	[4a [4aa	.
8G#' 8g#'	.	.
[4F#z [4f#z	16a] 16aaLL]	.
.	16bb	.
.	16ccc#	.
.	16dddJJ	.
=208	=208	=208
16F#] 16f#LL]	4g# 4gg#	.
16G#	.	.
16A	.	.
16BJJ	.	.
4E	8r	.
.	8ccc#	p
*clefG2	*	*
=209	=209	=209
8r	16ff#LL	.
.	16gg#	.
4e 4dd	16aa	.
.	16bbJJ	.
.	16aaLL	.
.	16gg#	.
[8e [8b	16ff#	.
.	16gg#JJ	.
!!LO:LB:g=original
=210	=210	=210
8e] 8b]	16aaLL	.
.	16bb	.
4e 4a	16ccc#	.
.	16dddJJ	.
.	16ccc#LL	.
.	16bb	.
8e 8g#	16aa	.
.	16bbJJ	.
=211	=211	=211
*	*8va	*
8aL	(16ccc#LL	.
.	16ddd	.
8g#	16eee	.
.	16fff#JJ	.
8f#	16ggg#LL	.
.	16aaa	.
8B 8bJ	16aa 16ccc#	.
.	16ddd#JJ)	.
=212	=212	=212
*^	*^	*
4B; 4b;	4.ryy	4.ryy	4aa;> 4fff#;>	.
!	!	!	!	!LO:DY:t=%s dolce
8e; 8b;	.	.	8gg#;> 8eee;<	p
*v	*v	*	*	*
*	*	*X8va	*
*clefF4	*	*	*
*^	*	*	*
8EE	8EE	8ee	8rg	.
=213	=213	=213	=213	=213
8EEL	[4CC#	[4aa	4rg	.
!	!	!LO:TX:c:i:t=poco espress.	!	!
8EE	.	.	.	.
8EE	16CC#LL]	16aaLL]	8rg	.
.	16DD	16gg#	.	.
8EEJ	16EE	16ff#	[8a	.
.	16FF#JJ	16eeJJ	.	.
=214	=214	=214	=214	=214
8EEL	4BBB	4dd	16aLL]	.
.	.	.	16g#	.
8EE	.	.	16f#	.
.	.	.	16eJJ	.
8EE	4r	8rdd	4d	.
8EEJ	.	8cc#	.	.
!!LO:LB:g=original
=215	=215	=215	=215	=215
8EEL	[4AAA	[4ff#/	4ryy	.
8EE	.	.	.	.
8EE	16AAALL]	16ff#LL]	8re	.
.	16BBB	16ee	.	.
8EEJ	16CC#	16dd	[8f#	.
.	16DDJJ	16cc#JJ	.	.
=216	=216	=216	=216	=216
8EEL	4GGG#	4b	16f#LL]	.
.	.	.	16e	.
8EE	.	.	16d	.
.	.	.	16c#JJ	.
8EEJ	4r	4r	4B	.
8EE	.	.	.	.
*v	*v	*	*	*
*	*v	*v	*
=217	=217	=217
16FF#LL	2r	.
16GG#	.	.
16AA	.	.
16BBJJ	.	.
16AALL	.	.
16GG#	.	.
16FF#	.	.
16GG#JJ	.	.
=218	=218	=218
*^	*	*
4rA	16AALL	2ryy	.
.	16BB	.	.
.	16C#	.	.
.	16DJJ	.	.
8rA	16C#LL	.	.
.	16BB	.	.
8E	16AA	.	.
.	16BBJJ	.	.
=219	=219	=219	=219
16F#LL	16AALL	2ryy	.
16G#	16BB	.	.
16A	16C#	.	.
16BJJ	16DJJ	.	.
16ALL	16C#LL	.	.
16G#	16BB	.	.
16F#	16AA	.	.
16G#JJ	16BBJJ	.	.
!!LO:LB:g=original
=220	=220	=220	=220
16ALL	16C#LL	4r	.
16B	16G#	.	.
16c#	16A	.	.
16dJJ	16BJJ	.	.
16c#LL	16ALL	8r	.
16B	16G#	.	.
16A	16F#	8e	.
16BJJ	16G#JJ	.	.
*v	*v	*	*
=221	=221	=221
16ALL	16c# 16f#LL	.
16B	16d 16g#	.
16c#	16e 16a	.
16dJJ	16f# 16bJJ	.
16c#LL	16e 16aLL	.
16B	16d 16g#	.
16A	16c# 16f#	.
16BJJ	16d 16g#JJ	.
*clefG2	*	*
=222	=222	=222
16c#LL	16e 16aLL	.
16d	16f# 16b	.
16e	16g# 16cc#	.
16f#JJ	16a 16ddJJ	.
16eLL	16g# 16cc#LL	.
16d	16f# 16b	.
16c#	16e 16a	.
16dJJ	16f# 16bJJ	.
=223	=223	=223
*	*^	*
16eLL	16cc#LL	16gnLL	.
16f#	16dd	16a	.
16gn	16ee	16b	.
16aJJ	16ff#JJ	16cc#JJ	.
16gLL	16eeLL	16bLL	.
16f#	16dd	16a	.
16e	16cc#	16g	.
16f#JJ	16ddJJ	16aJJ	.
=224	=224	=224	=224
16gnLL<	16eeLL	16bLL	.
16a	16ff#	16cc#	.
16b	16ggn	16dd	.
16cc#JJ	16aaJJ	16eeJJ	.
16ddLL	8aaL	16ff#LL	.
16ee	.	16gg	.
16dd	8aaJ	16ff#	.
16cc#JJ	.	16eeJJ	.
!!LO:LB:g=original
=225	=225	=225	=225
*^	*	*	*
!	!	!	!	!LO:DY:t=%s dolce
16f#LL	4d	8aa	8ff#	p
16gn	.	.	.	.
16a	.	8r	8r	.
16bJJ	.	.	.	.
8a	4ryy	[4aa	16ddLL	.
.	.	.	16ee	.
8r	.	.	16ff#	.
.	.	.	16gg#JJ	.
=226	=226	=226	=226	=226
16f#LL	4d	8aa]	8ff#	.
16gn	.	.	.	.
16a	.	8r	8r	.
16bJJ	.	.	.	.
8a	4ryy	[4aa	16ddLL	.
.	.	.	16ee	.
8r	.	.	16ff#	.
.	.	.	16ggnJJ	.
=227	=227	=227	=227	=227
16gnLL	4e	8aa]	8cc#	.
16a	.	.	.	.
16b	.	8r	8r	.
16aJJ	.	.	.	.
4r	4r	(4aa	16cc#LL	.
.	.	.	16ggn	.
.	.	.	16cc#	.
.	.	.	16ggJJ	.
=228	=228	=228	=228	=228
16gnLL	4e	4gggn	4r	.
16a	.	.	.	.
16b	.	.	.	.
16aJJ	.	.	.	.
4r	4r	4ccc#	16cc#LL	.
.	.	.	16ggn	.
.	.	.	16cc#	.
.	.	.	16ggJJ	.
=229	=229	=229	=229	=229
16f#LL	4d	4ddd)	8ff#	.
16gn	.	.	.	.
16a	.	.	8r	.
16bJJ	.	.	.	.
8a	4ryy	[4aa	16ddLL	.
.	.	.	16ee	.
8r	.	.	16ff#	.
.	.	.	16ggnJJ	.
!!LO:LB:g=original
=230	=230	=230	=230	=230
16f#LL	4d	8aa]	8ff#	.
16gn	.	.	.	.
16a	.	8r	8r	.
16bJJ	.	.	.	.
8a	4ryy	[4aa	16ddLL	.
.	.	.	16ee	.
8r	.	.	16ff#	.
.	.	.	16ggnJJ	.
=231	=231	=231	=231	=231
16gnLL	4e	4aa]	8cc#	.
16a	.	.	.	.
16b	.	.	8r	.
16aJJ	.	.	.	.
4r	4r	(4aa	16cc#LL	<
.	.	.	16ggn	.
.	.	.	16cc#	.
.	.	.	16ggJJ	.
=232	=232	=232	=232	=232
16gnLL	4e	4gggn	4r	.
16a	.	.	.	.
16b	.	.	.	.
16aJJ	.	.	.	.
4r	4r	4ccc#)	16cc#LL	.
.	.	.	16ggn	.
.	.	.	16cc#	.
.	.	.	16ggJJ	.
*v	*v	*	*	*
*clefF4	*	*	*
=233	=233	=233	=233
*^	*	*	*
16ALL	4F#	4ddd	4r	.
16d	.	.	.	.
16A	.	.	.	.
16dJJ	.	.	.	.
*v	*v	*	*	*
*clefG2	*	*	*
*^	*	*	*
8f#	4ryy	(4dd	16aLL	.
.	.	.	16b	.
8r	.	.	16a	.
.	.	.	16bJJ	.
*v	*v	*	*	*
*clefF4	*	*	*
=234	=234	=234	=234
*^	*	*	*
16BLL	4G#X	4bb	4r	.
16d	.	.	.	.
16B	.	.	.	.
16eJJ	.	.	.	.
*v	*v	*	*	*
*clefG2	*	*	*
*^	*	*	*
8g#X	4ryy	4ee	16bLL	.
.	.	.	16cc#	.
8r	.	.	16b	.
.	.	.	16cc#JJ	.
!!LO:LB:g=original
=235	=235	=235	=235	=235
16c#LL	4A	4ccc#	4r	.
16e	.	.	.	.
16c#	.	.	.	.
16eJJ	.	.	.	.
8a	4ryy	4ee	16cc#LL	.
.	.	.	16dd	.
8r	.	.	16cc#	.
.	.	.	16ddJJ	.
=236	=236	=236	=236	=236
16dLL	4B	4ddd	4r	.
16e	.	.	.	.
16d	.	.	.	.
16eJJ	.	.	.	.
8b/	4ryy	4gg#	16ddLL	.
.	.	.	16ee	.
8r	.	.	16dd	.
.	.	.	16eeJJ	.
*v	*v	*	*	*
=237	=237	=237	=237
16c#LL	4eee	4r	.
16e	.	.	.
16c#	.	.	.
16eJJ	.	.	.
8cc#	4aa	16eeLL	.
.	.	16ff#	.
8r	.	16ee	.
.	.	16ff#JJ	.
=238	=238	=238	=238
16dLL	4eee	4r	.
16e	.	.	.
16g#	.	.	.
16bJJ	.	.	.
8ddL	4gg#	16eeLL)	.
.	.	16ff#	.
8ddJ	.	16ee	.
.	.	16ff#JJ	.
=239	=239	=239	=239
*	*8va	*8va	*
*^	*	*	*
2ee	16ddLL	[4eee	4.gg# 4.bb	f
.	16cc#	.	.	.
.	16b	.	.	.
.	16cc#JJ	.	.	.
.	4dd	16eeeLL]	.	.
.	.	16fff#	.	.
.	.	16ggg#	8ryy	.
.	.	16fff#JJ	.	.
!!LO:LB:g=original
=240	=240	=240	=240	=240
2ee	16ddLL	[4eee	4.gg# 4.bb	.
.	16cc#	.	.	.
.	16b	.	.	.
.	16cc#JJ	.	.	.
.	4dd	16eeeLL]	.	.
.	.	16fff#	.	.
.	.	16ggg#	8r	.
.	.	16fff#JJ	.	.
*v	*v	*	*	*
=241	=241	=241	=241
8dd' 8ee'L	8eee'L	4gg# 4bb	ff
8cc#' 8ee'	8fff#'	.	.
8b' 8dd' 8ee'	8eee' 8ggg#'	8gg#L	.
8a' 8cc#' 8ee'J	8fff#' 8aaa'J	8aaJ	.
*	*v	*v	*
=242	=242	=242
8g#' 8b' 8ee'L	8bb' 8ggg#' 8bbb'L	.
8f#' 8a' 8ee'J	8ccc#' 8aaa' 8cccc#'J	.
4e\ 4g#\ 4ee\	4ddd 4bbb 4dddd	sf
*	*X8va	*
=243	=243	=243
2r	4r	.
!	!	!LO:DY:t=%s dolce
.	(8.ddL	p
.	16cc#Jk	.
=244	=244	=244
2r	8.bL	.
.	16cc#Jk	.
.	4dd)	.
=245	=245	=245
4r	(4cc#	.
(8.aL	4ff#	p
16g#Jk	.	.
=246	=246	=246
8.f#L	4aa	.
16g#Jk	.	.
4a)	4cc# 4ff#)	.
*clefF4	*	*
!!LO:LB:g=original
=247	=247	=247
4r	2g# 2b (2ee	.
(8.BBL	.	.
16AA#Jk	.	.
=248	=248	=248
8.BBL	2f#\ 2a\ 2dd#\	.
16AAnJk	.	.
4FF#)	.	.
=249	=249	=249
4EE	4g# 4ee)	.
*clefG2	*	*
*ped	*	*
(8.a 8.cc#L	8.aa (8.ccc#L	pp
16e 16bJk	16ee 16bbJk	.
=250	=250	=250
8.c# 8.aL	8.cc# 8.aaL	.
16e 16bJk	16ee 16bbJk	.
4a/ 4cc#/)	4aa 4ccc#)	.
*Xped	*	*
=251	=251	=251
8ee'L<	8.bb (8.dddL	f
8e'J	.	.
.	16gg# 16eeeJk)	.
8a'L	8aa' 8ccc#'L	.
8A'J	8ccc#' 8aaa'J	.
=252	=252	=252
8ccc#'L	8.dd (8.bbL	.
8cc#'J	.	.
.	16ee 16ccc#Jk	.
4f#	8cc# 8aa)	.
.	8aa	p
!!LO:LB:g=original
=253	=253	=253
*clefF4	*	*
8AA	[4ee	.
8A 8c# 8eL	.	.
8A 8c# 8e	16eeLL]	.
.	16ff#	.
8A 8c# 8eJ	16gg#	.
.	16aaJJ	.
=254	=254	=254
*	*^	*
8AA	4ff#	[4a	.
8A 8d 8f#L	.	.	.
8A 8d 8f#	4r	16aLL]	.
.	.	16b	.
8A 8d 8f#J	.	16cc#	.
.	.	16ddJJ	.
=255	=255	=255	=255
8AA	2re	[>4bb	.
8A 8B 8d 8eL	.	.	.
8A 8B 8d 8e	.	16bbLL]	.
.	.	16ccc#	.
8A 8d 8eJ	.	16ddd	.
.	.	16eeeJJ	.
=256	=256	=256	=256
8AA	4ccc#	[4ee	.
8A 8c# 8eL	.	.	.
8A 8c# 8e	4r	16eeLL]	.
.	.	16ff#	.
8A 8c# 8eJ	.	16gg#	.
.	.	16aaJJ	.
*	*v	*v	*
=257	=257	=257
8AA	8eeL	<
8A 8c# 8eL	[8eeJ	.
8A 8c# 8e	16eeLL]	.
.	16ff#	.
8A 8c# 8eJ	16gg#	.
.	16aaJJ	.
=258	=258	=258
*	*^	*
8AA	4ff#	8aL	.
8A 8d 8f#L	.	[8aJ	.
8A 8d 8f#	4raa	16aLL]	.
.	.	16b	.
8A 8d 8f#J	.	16cc#	.
.	.	[16ddJJ	.
!!LO:LB:g=original
=259	=259	=259	=259
8AA	8bbL	4dd]	.
8A 8B 8d 8eL	[8bbJ	.	.
8A 8B 8d 8e	16bbLL]	4r	.
.	16ccc#	.	.
8A 8B 8d 8eJ	16ddd	.	.
.	16eeeJJ	.	.
*	*v	*v	*
=260	=260	=260
16AALL	8ee 8ccc# 8eee	p
16BB	.	.
16C#	4a 4cc# 4ee	.
16DJJ	.	.
16C#LL>	.	.
16D	.	.
16E	[8a [8cc# [8ee	.
16F#JJ	.	.
=261	=261	=261
16ELL	8.a] 8.cc#] 8.eeL]	.
16F#	.	.
16G#	.	.
16AJJ	16a 16cc# 16eeJk	.
16G#LL	8.a 8.cc# 8.eeL	.
16A	.	.
16B	.	.
16c#JJ	16a 16cc# 16eeJk	.
=262	=262	=262
8E 8B 8d	16g# 16b 16eeLL>	f
.	16f#	.
4EE 4E	16g#	.
.	16aJJ	.
.	16g#LL	.
.	16a	.
[8EE [8E	16b	.
.	16cc#JJ	.
=263	=263	=263
8.EE] 8.EL]	16bLL	.
.	16cc#	.
.	16dd	.
16EE 16BB 16DJk	16eeJJ	.
8.EE 8.BB 8.DL	16ddLL	.
.	16ee	.
.	16ff#	.
16EE 16BB 16DJk	16gg#JJ	.
!!LO:LB:g=original
=264	=264	=264
16AALL	8a 8cc# 8aa	fp
16BB	.	.
16C#	4a 4cc# 4ee	<
16DJJ	.	.
16C#LL>	.	.
16D	.	.
16E	[8a [8cc# [8ee	.
16F#JJ	.	.
=265	=265	=265
16ELL	8.a] 8.cc#] 8.eeL]	.
16F#	.	.
16G#	.	.
16AJJ	16a 16cc# 16eeJk	.
16G#LL	8.a 8.cc# 8.eeL	.
16A	.	.
16B	.	.
16c#JJ	16a 16cc# 16eeJk	.
=266	=266	=266
8E 8B 8d	16g# 16b 16eeLL	ff
.	16ff#	.
4E 4e	16gg#	.
.	16aaJJ	.
.	16gg#LL	.
.	16aa	.
[8E [8e	16bb	.
.	16ccc#JJ	.
=267	=267	=267
8.E] 8.eL]	16bbLL	.
.	16ccc#	.
.	16ddd	.
*clefG2	*	*
16e 16b 16ddJk	16eeeJJ	.
8.e 8.b 8.ddL<	16dddLL	.
.	16eee	.
.	16fff#	.
16e 16b 16ddJk	16ggg#JJ	.
=268	=268	=268
4f# 4a 4cc#	4aa 4ccc# 4aaa	.
*clefF4	*	*
8r	8r	.
8D' 8d'	8b' 8ff#' 8bb'	p
=269	=269	=269
4D' 4d'	4b' 4ff#' 4bb'	.
8r	8r	.
8BB' 8B'	8dd' 8ddd'	.
!!LO:LB:g=original
=270	=270	=270
8BB' 8B'L	8dd' 8ddd'L	.
8E' 8e'	8g#' 8dd' 8gg#'	.
8E' 8e'	8g#' 8dd' 8gg#'	.
8AA 8AJ	8a' 8cc#' 8aa'J	.
=271	=271	=271
4EE 4E	4b 4gg# 4bb	.
4r	4r	.
=272	=272	=272
4G#	4e 4b 4dd	pp
8r	8r	.
8A'	8e' 8a' 8cc#'	.
=273	=273	=273
4A	4e 4a 4cc#	.
8r	8r	.
8D'	8f#' 8a' 8b'	.
=274	=274	=274
8D'L	8f#' 8a' 8b'L>	.
8E'	8g#' 8ee'	.
8E'	8g#' 8ee'	.
8AA'J	8a'J	.
=275	=275	=275
4AA	4a	.
4r	4r	.
=276	=276	=276
!	!	!LO:DY:a=2
8BBBL	2r	pp
8EE'	.	.
8EE'	.	.
8AAA'J	.	.
=277	=277	=277
4AAA	2r	.
4r	.	.
!!LO:LB:g=original
=278	=278	=278
*	*^	*
8BBB'L	2e	2d	.
8EE'	.	.	.
8EE'	.	.	.
8AAA'J	.	.	.
=279	=279	=279	=279
4AAA	[4e	2c#	.
!	!	!	!LO:DY:t=sempre %s
4r	16eLL]	.	p
.	16f#	.	.
.	16g#	.	.
.	16aJJ	.	.
=280	=280	=280	=280
8BBB'L	2e 2g#	2d	.
8EE'	.	.	.
8EE'	.	.	.
8AAA'J	.	.	.
=281	=281	=281	=281
4AAA	([4a	4c# 4e	.
4r	16aLL]	4r	.
.	16b	.	.
.	16cc#	.	.
.	16eeJJ)	.	.
=282	=282	=282	=282
8BBB'L	2e	2d	.
8EE'	.	.	.
8EE'	.	.	.
8AAA'J	.	.	.
=283	=283	=283	=283
4AAA	([4e	2c#	.
4r	16eLL]	.	.
.	16f#	.	.
.	16g#	.	.
.	16aJJ)	.	.
=284	=284	=284	=284
8BBB'L	2e 2g#	2d	.
8EE'	.	.	.
8EE'	.	.	.
8AAA'J	.	.	.
!!LO:LB:g=original
=285	=285	=285	=285
4AAA'	([4a	4.c# 4.e	.
4r	16aLL]	.	.
.	16b	.	.
.	16cc#	8rc	.
.	16eeJJ)	.	.
*	*v	*v	*
=286	=286	=286
4.AA; 4.C#; 4.E; 4.Gn;	4.gn; 4.cc#; 4.ee; 4.ggn;	.
8AAA' 8AA'	8a' 8aa'	ff
=287	=287	=287
4FFF#' 4FF#'	4f#' 4ff#'	.
4r	4r	.
=288	=288	=288
4r	4r	.
8r	8r	.
8AAA' 8AA'	8A' 8a'	p
=289	=289	=289
4FFFn' 4FFn'	4Fn' 4fn'	.
4r	4r	.
=290	=290	=290
4r	2r	.
8r	.	.
!	!	!LO:DY:rj:a=2
8AA'	.	pp
=291	=291	=291
([4FFn	2r	.
16FFLL]	.	.
16GGn	.	.
16AA	.	.
16BB-JJ)	.	.
*	*clefF4	*
=292	=292	=292
4EE	4r	.
8r	8r	.
8GGn'	8B-'	.
!!LO:LB:g=original
=293	=293	=293
([4EE	([4Gn	.
16EELL]	16GLL]	.
16FFn	16A	.
16GGn	16B-	.
16AAJJ)	16cnJJ)	.
=294	=294	=294
4FFn	4A	.
*	*clefG2	*
4r	8r	.
.	8ccn'	.
=295	=295	=295
2Fn 2A	([4a\	.
.	16aLL]	.
.	16bn	.
.	16ccn	.
.	16ddJJ)	.
=296	=296	=296
*^	*	*
4Bn	4E	4g#X	.
8rA	4rBB	8r	.
8B'	.	8dd	.
=297	=297	=297	=297
([4G#	[2E	([4b	.
16G#LL]	.	16bLL]	.
16A	.	16cc#X	.
16B	.	16dd	.
16c#JJ)	.	16eeJJ)	.
=298	=298	=298	=298
*	*	*^	*
2B	(8EL]	(4.dd	8r	.
.	8FnJ	.	(8a	.
.	[4E)	.	4g#)	.
.	.	8ee	.	.
=299	=299	=299	=299	=299
(4A	4.E]	8cc#L	4.a	.
.	.	8aa	.	.
8c#)	.	8eeJ)	.	.
8e'	8E	8r	8r	.
*	*	*v	*v	*
!!LO:LB:g=original
=300	=300	=300	=300
4.d	(8EL	8r	.
.	8FnJ	4b 4gg#	.
.	4E)	.	.
8e	.	8b 8gg#	.
=301	=301	=301	=301
*	*	*^	*
4.ryy	8E (8c#L	4.ryy	8a (8aaL	.
*clefG2	*clefG2	*	*	*
.	8a	.	8cc# 8ee	.
.	8eJ)	.	8a 8cc#J)	.
*v	*v	*	*	*
*clefF4	*	*	*
*^	*	*	*
8B'	8E	8ee'	8g#	.
=302	=302	=302	=302	=302
2B	(8EL	4.dd	(8g#L	.
.	8FnJ	.	8aJ	.
.	4E)	.	4g#)	.
.	.	8ee'	.	.
*	*	*v	*v	*
=303	=303	=303	=303
4A	(8AAL	8e (8cc#L	.
.	8C#	8a	.
4rc	8D	8f#	.
.	8BBJ	8d 8g#J	.
=304	=304	=304	=304
*	*	*^	*
8rc	8C#L	8e 8aL	8r	.
8dL	8D)	8bJ	8f#	.
8c#	8E	8aL	4e	.
8BJ	8EJ	16g#L	.	.
.	.	16eeJJ)	.	.
=305	=305	=305	=305	=305
2B	(8EL	(4.dd	8g#L	.
.	8FnJ	.	8aJ	.
.	4E)	.	4g#)	.
.	.	8ee'	.	.
=306	=306	=306	=306	=306
(4A	4.E	(8cc#L	4.a	.
.	.	8aa	.	.
8c#)	.	8eeJ)	.	.
8e'	8E	8r	8r	.
=307	=307	=307	=307	=307
4.dT	4.E	8r	8r	.
.	.	4b 4gg#	(8ffnL	.
.	.	.	8eeJ)	.
.	(16qc#LL	.	.	.
.	16qdJJ)	.	.	.
8e	8r	8b 8gg#	8r	.
!!LO:LB:g=original
=308	=308	=308	=308	=308
4.ryy	8E (8c#L	4.ryy	8a (8aaL	.
*clefG2	*clefG2	*	*	*
.	8a	.	8cc# 8ee	.
.	8eJ)	.	8a 8cc#J)	.
*v	*v	*	*	*
*clefF4	*	*	*
*^	*	*	*
8B'	8E	8eeT'	8g#	.
=309	=309	=309	=309	=309
2B	(8EL	4.dd	(8g#L	.
.	8FnJ	.	8aJ	.
.	4E)	.	4g#)	.
.	.	(<cc#16qLL	.	.
.	.	dd16qJJ	.	.
.	.	8ee')	.	.
*v	*v	*	*	*
=310	=310	=310	=310
8A 8c#L	(16.cc#tLL	8e\ 8a\L	.
.	64bLL	.	.
.	64cc#JJJJ	.	.
8C#	8aL	8e\	.
8D	8f#	8A</	.
8BBJ	8e 8g#J	8d\J	.
=311	=311	=311	=311
8C#L	8aL	8eL	.
8DJ	8bJ)	8f#J	.
16ELL	4ryy	16B 16g#LL	.
*clefG2	*	*	*
16d#	.	16f#	.
16e	.	16g#	.
16f#JJ	.	16aJJ	.
*	*v	*v	*
=312	=312	=312
16g#LL	16bLL	pp
16a	16cc#	.
16b	16dd	.
16cc#JJ	16eeJJ	.
16aLL	16cc#LL	.
16g#	16b	.
16f#	16a	.
16g#JJ	16bJJ	.
=313	=313	=313
*	*^	*
16aLL	8rccc	16cc#LL	.
16b	.	16dd	.
16cc#	8eee'L	16ee	.
16ddJJ	.	16ff#JJ	.
16cc#LL	8aa'J	16eeLL	.
16b	.	16dd	.
16cc#	8rccc	16ee	.
16aJJ	.	16cc#JJ	.
*	*v	*v	*
!!LO:LB:g=original
=314	=314	=314
16g#LL	16bLL	.
16a	16cc#	.
16b	16dd	.
16cc#JJ	16eeJJ	.
16aLL	16cc#LL	.
16g#	16b	.
16f#	16a	.
16g#JJ	16bJJ	.
*clefF4	*	*
=315	=315	=315
8r	16a 16cc#LL	.
.	16b 16dd	.
8e'L	16cc# 16ee	.
.	16dd 16ff#JJ	.
8A'J	16cc# 16eeLL	.
.	16b 16dd	.
8r	16cc# 16ee	.
.	16a 16cc#JJ	.
*clefG2	*	*
=316	=316	=316
16g#LL	16bLL	.
16a	16cc#	.
16b	16dd	.
16cc#JJ	16eeJJ	.
16aLL	16cc#LL	.
16g#	16b	.
16f#	16a	.
16g#JJ	16bJJ	.
=317	=317	=317
8a'L	8cc#	.
8ee'	8r	.
8a'J	8r	.
8r	8eee'	.
=318	=318	=318
8r	8aa'	.
8ee'L	8r	.
8a'J	8r	.
8r	8e'	.
*clefF4	*	*
!!LO:LB:g=original
=319	=319	=319
8r	8A'	p
8E'L	8r	.
8AA'	4r	.
8EE'J	.	.
=320	=320	=320
*8ba	*	*
!	!	!LO:DY:a=2
(16GGG#LL	2r	p
16AAA	.	.
16GGG#	.	.
16AAAJJ	.	.
16GGG#LL	.	.
16AAA	.	.
16GGG#	.	.
16AAAJJ	.	.
=321	=321	=321
16GGG#LL	8r	.
16AAA	.	.
16GGG#	8e'	>
16AAAJJ	.	.
16GGG#LL	16c#LL	.
16AAA	16d	.
16GGG#	16e	.
16AAAJJ	16f#JJ	.
=322	=322	=322
16GGG#LL	8d'L	.
16AAA	.	.
16GGG#	8A'J	.
16AAAJJ	.	.
16GGG#LL	16F#LL	.
16AAA	16A	.
16GGG#	16d	.
16AAAJJ)	16BJJ	.
=323	=323	=323
*^	*^	*
16GGG#LL	2EEE	4ryy	8G#'L	.
16AAA	.	.	.	.
16GGG#	.	.	8dd'J	.
16AAAJJ	.	.	.	.
16GGG#LL	.	16bLL	4g#	.
16AAA	.	16cc#	.	.
16GGG#	.	16dd	.	.
16AAAJJ	.	16eeJJ	.	.
*v	*v	*	*	*
!!LO:LB:g=original
=324	=324	=324	=324
16GGG#LL	8cc#L	4.a	.
16AAA	.	.	.
16GGG#	8ee	.	.
16AAAJJ	.	.	.
16GGG#LL	8aaJ	.	.
16AAA	.	.	.
16GGG#	8r	8r	.
16AAAJJ	.	.	.
*	*v	*v	*
=325	=325	=325
16GGG#LL	8r	.
16AAA	.	.
16GGG#	16eLL	pp
16AAAJJ	16dJJ	.
16GGG#LL	16c#LL	.
16AAA	16d	.
16GGG#	16e	.
16AAAJJ	16f#JJ	.
=326	=326	=326
16GGG#LL	8dL	.
16AAA	.	.
16GGG#	16AL	.
16AAAJJ	16GnJJ	.
16GGG#LL	16F#LL	.
16AAA	16A	.
16GGG#	16d	.
16AAAJJ	16BJJ	.
=327	=327	=327
*^	*^	*
16GGG#LL	2EEE	8G#L	4ryy	.
16AAA	.	.	.	.
16GGG#	.	16ddL	.	pp
16AAAJJ	.	16cc#JJ	.	.
16GGG#LL	.	16bLL	4g#	.
16AAA	.	16cc#	.	.
16GGG#	.	16dd	.	.
16AAAJJ	.	16eeJJ	.	.
*v	*v	*	*	*
=328	=328	=328	=328
!!LO:TX:a:B:t=Ritardando
16GGG#LL	8cc#L	4.a	.
16AAA	.	.	.
16GGG#	8ee	.	.
16AAAJJ	.	.	.
16GGG#LL	8aaJ	.	.
16AAA	.	.	.
16GGG#	8r	8r	.
16AAAJJ	.	.	.
!!LO:LB:g=original
=329	=329	=329	=329
*^	*	*	*
16GGG#LL	2EEE	8r	2g#	.
16AAA	.	.	.	.
16GGG#	.	16ddLL	.	.
16AAAJJ	.	16cc#JJ	.	.
16GGG#LL	.	16bLL	.	.
16AAAJ	.	16cc#	.	.
8GGG#J	.	16dd	.	.
.	.	16eeJJ	.	.
*v	*v	*	*	*
=330	=330	=330	=330
16GGG#LL	8cc#L	4.a	.
16AAA	.	.	.
16GGG#	8ee	.	.
16AAAJJ	.	.	.
16GGG#LL	8aaJ	.	.
16AAA	.	.	.
16GGG#	8r	8r	.
16AAAJJ	.	.	.
=331	=331	=331	=331
*^	*	*	*
16GGG#LL	2EEE	8r	2g#	.
16AAA	.	.	.	.
16GGG#	.	16ddLL	.	.
16AAAJJ	.	16cc#JJ	.	.
16GGG#LL	.	16bLL	.	.
16AAAJ	.	16cc#	.	.
8GGG#J	.	16dd	.	.
.	.	16eeJJ	.	.
*v	*v	*	*	*
*	*v	*v	*
=332	=332	=332
!!LO:TX:a:B:t=a Tempo
8AAA 8AAL	8c#' 8e' 8a'L>	ff
8AAA 8CC# 8EE 8AA	8e' 8a' 8cc#'	.
8AAA 8CC# 8EE 8AA	8a' 8cc#' 8ee'	.
8AAA 8CC# 8EE 8AAJ	8a' 8cc#' 8ee' 8aa'J	.
=333	=333	=333
*	*8va	*
8AAA 8CC# 8EE 8AA	8cc# 8ee 8aa 8ccc#	.
8r	8r	.
8AAA 8CC# 8EE 8AA	8ee 8aa 8ccc# 8eee	.
8r	8r	.
=334	=334	=334
4AAA 4CC# 4EE 4AA	4aa 4ccc# 4eee 4aaa	.
*X8ba	*X8va	*
8r;	8r;	.
==	==	==
*-	*-	*-
!!!RDF**kern: > = above
!!!RDF**kern: < = below
!!!RDF**dynam: > = dim.
!!!verovio: beamFrenchStyle
!!!LOR: Durand 1915, plates 9327/9328, Paul Dukas, ed.
!!!PED: Dukas, Paul
!!!URL-vhv: https://verovio.humdrum.org/?file=beethoven/sonatas/sonata28-4.krn
!!!URL-pdf: https://github.com/craigsapp/beethoven-piano-sonatas/blob/master/reference-edition/sonata28-4.pdf
!!!ENC: Craig Stuart Sapp
!!!END: 2008/07/17
!!!EED: Craig Stuart Sapp
!!!EEV: 2024/02/19
